packages/bezier-icons/icons/history.svg

<svg width="24" height="24" viewBox="0 0 24 24" fill="none" xmlns="http://www.w3.org/2000/svg">
<path fill-rule="evenodd" clip-rule="evenodd" d="M6.38534 6.30089C7.8731 4.83583 9.86958 3.9998 11.9999 3.9998C16.4176 3.9998 19.9999 7.58209 19.9999 11.9998C19.9999 16.4182 16.418 19.9998 11.9999 19.9998C7.5818 19.9998 3.99988 16.4182 3.99988 11.9998H1.99988C1.99988 17.5228 6.47726 21.9998 11.9999 21.9998C17.5225 21.9998 21.9999 17.5228 21.9999 11.9998C21.9999 6.47752 17.5222 1.9998 11.9999 1.9998C9.3336 1.9998 6.83033 3.05027 4.97122 4.88652L2.85418 2.7691C2.53918 2.4551 2.00018 2.6771 2.00018 3.1231V8.7501C2.00018 9.0261 2.22418 9.2501 2.50018 9.2501H8.12718C8.57218 9.2501 8.79518 8.7111 8.48018 8.3961L6.38534 6.30089ZM13.0002 7.00011C13.0002 6.44782 12.5525 6.00011 12.0002 6.00011C11.4479 6.00011 11.0002 6.44782 11.0002 7.00011V11.9271C11.0002 12.3024 11.2103 12.6462 11.5444 12.8172L14.7283 14.4475C15.2199 14.6992 15.8225 14.5047 16.0742 14.0131C16.3259 13.5215 16.1314 12.919 15.6398 12.6672L13.0002 11.3157V7.00011Z" fill="#313234"/>
</svg>

<svg xmlns="http://www.w3.org/2000/svg" width="24" height="24" fill="none" viewBox="0 0 24 24"><path fill="#313234" fill-rule="evenodd" d="M6.385 6.3A8 8 0 1 1 4 12H2c0 5.524 4.477 10 10 10s10-4.476 10-10c0-5.521-4.478-10-10-10A9.97 9.97 0 0 0 4.97 4.888L2.854 2.769A.5.5 0 0 0 2 3.123V8.75a.5.5 0 0 0 .5.5h5.627a.5.5 0 0 0 .353-.854zM13 7a1 1 0 1 0-2 0v4.927a1 1 0 0 0 .544.89l3.184 1.63a1 1 0 0 0 .912-1.78L13 11.316z" clip-rule="evenodd"/></svg>
